Numix-GalliumOS/32/mimetypes/encrypted.svg

<?xml version="1.0" encoding="UTF-8" standalone="no"?>
<svg
   xmlns:dc="http://purl.org/dc/elements/1.1/"
   xmlns:cc="http://creativecommons.org/ns#"
   xmlns:rdf="http://www.w3.org/1999/02/22-rdf-syntax-ns#"
   xmlns:svg="http://www.w3.org/2000/svg"
   xmlns="http://www.w3.org/2000/svg"
   xmlns:sodipodi="http://sodipodi.sourceforge.net/DTD/sodipodi-0.dtd"
   xmlns:inkscape="http://www.inkscape.org/namespaces/inkscape"
   width="32"
   height="32"
   viewBox="0 0 32 32"
   id="svg2"
   version="1.1"
   inkscape:version="0.48.5 r10040"
   sodipodi:docname="encrypted.svg">
  <metadata
     id="metadata14">
    <rdf:RDF>
      <cc:Work
         rdf:about="">
        <dc:format>image/svg+xml</dc:format>
        <dc:type
           rdf:resource="http://purl.org/dc/dcmitype/StillImage" />
      </cc:Work>
    </rdf:RDF>
  </metadata>
  <defs
     id="defs12" />
  <sodipodi:namedview
     pagecolor="#ffffff"
     bordercolor="#666666"
     borderopacity="1"
     objecttolerance="10"
     gridtolerance="10"
     guidetolerance="10"
     inkscape:pageopacity="0"
     inkscape:pageshadow="2"
     inkscape:window-width="1280"
     inkscape:window-height="970"
     id="namedview10"
     showgrid="true"
     inkscape:zoom="10.429825"
     inkscape:cx="16.760053"
     inkscape:cy="13.880653"
     inkscape:window-x="0"
     inkscape:window-y="0"
     inkscape:window-maximized="1"
     inkscape:current-layer="svg2">
    <inkscape:grid
       type="xygrid"
       id="grid2991" />
  </sodipodi:namedview>
  <path
     style="fill:#dcdcdc;fill-opacity:1"
     d="M 5.335888,2.9732228e-4 C 4.648414,3.1228127e-4 4,0.67678818 4,1.3940315 L 4,30.606268 C 4,31.282757 4.687474,32 5.335888,32 l 21.327332,0 c 0.648414,0 1.335888,-0.717243 1.335888,-1.393732 L 28,9 19,0 z"
     id="path4-1"
     inkscape:connector-curvature="0"
     sodipodi:nodetypes="ssssssccs" />
  <path
     style="fill:#000000;fill-opacity:0.19599998"
     d="m 21,9 7,7 0,-7 z"
     id="path6-4"
     inkscape:connector-curvature="0"
     sodipodi:nodetypes="cccc" />
  <path
     style="fill:#ffffff;fill-opacity:0.39200003"
     d="M 19.000306,2.9732228e-4 27.9919,9 20.378638,9 C 19.705687,9 19.000306,8.2865104 19.000306,7.6135598 z"
     id="path8-6"
     inkscape:connector-curvature="0"
     sodipodi:nodetypes="ccssc" />
  <path
     style="color:#000000;fill:#888888;fill-opacity:1"
     inkscape:connector-curvature="0"
     id="path30"
     d="m 16.000021,11 c 0,0 4.995411,-0.316545 4.999979,3 l 0,3 c 0,0 1.000023,0.06584 1.000021,0.81815 l -2.2e-5,6.988606 C 21.999931,25.437843 21.387466,25.999931 20.714284,26 l -9.428575,0 c -0.673177,-6.9e-5 -1.285647,-0.562157 -1.2857097,-1.193244 l 2.17e-5,-6.988606 C 10.000023,17.065836 11,17 11,17 l 0,-3 c 0,-3 5.000025,-3 5.000021,-3 z m 0,2.045445 c 0,0 -3.000021,-0.115962 -3.000021,2.374368 L 13,17 l 6,0 0,-1.568202 c 0,-2.49033 -2.999979,-2.386353 -2.999979,-2.386353 z"
     sodipodi:nodetypes="cccsccccsccccsccsc" />
</svg>

<svg xmlns="http://www.w3.org/2000/svg" viewBox="0 0 32 32">
 <path d="m 5.336 0 c -0.687 0 -1.336 0.676 -1.336 1.394 l 0 29.21 c 0 0.676 0.687 1.394 1.336 1.394 l 21.327 0 c 0.648 0 1.336 -0.717 1.336 -1.394 l 0.001 -21.606 -9 -9 z" style="fill:#dcdcdc;fill-opacity:1"/>
 <path d="m 21 9 7 7 0 -7 z" style="fill:#000;fill-opacity:0.196"/>
 <path d="m 19 0 8.992 9 -7.613 0 c -0.673 0 -1.378 -0.713 -1.378 -1.386 z" style="fill:#fff;fill-opacity:0.392"/>
 <path d="m 16 11 c 0 0 4.995 -0.317 5 3 l 0 3 c 0 0 1 0.066 1 0.818 l 0 6.989 c 0 0.631 -0.613 1.193 -1.286 1.193 l -9.429 0 c -0.673 0 -1.286 -0.562 -1.286 -1.193 l 0 -6.989 c 0 -0.752 1 -0.818 1 -0.818 l 0 -3 c 0 -3 5 -3 5 -3 z m 0 2.045 c 0 0 -3 -0.116 -3 2.374 l 0 1.58 l 6 0 0 -1.568 c 0 -2.49 -3 -2.386 -3 -2.386 z" style="fill:#888;fill-opacity:1;color:#000"/>
</svg>
